X:1
T:Quem pastores laudavere
T:Carl Loewe
T:Quem pastores laudavere
T:CPDL - Creative Commons Attribution Non Commercial 3.0
T:CPDL - Creative Commons Attribution Non Commercial 3.0
C:Carl Loewe
Z:CPDL - Creative Commons Attribution Non Commercial 3.0
%%score [ ( 1 2 3 ) ( 4 5 ) ]
L:1/8
Q:1/4=80
M:6/8
K:C
V:1 treble nm="S\nA"
V:2 treble 
V:3 treble 
V:4 bass nm="T\nB"
V:5 bass 
V:1
"^I. Chor"!mf!"^Anmutig" G2 c e2 c | G>e d/c/ c2 B |"^II. Chor" G2 [Gd] d/e/f/e/[Gd] | %3
w: 1.~Quem pas- to- res|lau- * da- * ve- re,|Den die Hir- * * * ten|
w: 2.~Ad quem re- ges|am- * bu- * la- bant,|Kön'- ge ka- * * * men|
w: 3.~Ex- ul- te- mus|cum _ Ma- * ri- a|Freu't euch al- * * * le|
w: 4.~Chris- to re- gi,|De- * o _ na- to,|Lobt, ihr Men- * * * schen|
 G2 [Gd] d/e/f/e/[Gd] |"^I." G2 c e2 c | G>e d/c/ c2 B |"^II." G2 [Gd] d/e/f/e/[Gd] | %7
w: lob- ten seh- * * * re|qui- bus an- ge-|li- * di- * xe- re:|und die En- * * * gel|
w: her- ge- rit- * * * ten,|au- rum, tus, myr-|rham _ por- * ta- bant,|Weih- rauch, Myr- * * * rhen,|
w: mit Ma- ri- * * * a|in coe- les- ti|hie- * rar- * chi- a,|in des Him- * * * mels|
w: all- zu- glei- * * * che,|per Ma- ri- am|no- * bis _ da- to,|Got- tes Sohn- * * * vom|
 G2 [Gd] d/e/f/e/[Gd] | e2 d c2 B | AcB A2 ^G | e2 d c2 B | AcB A2 ^G | %12
w: noch viel meh- * * * re:|Ab- sit vo- bis|jam _ ti- me- re,|Fürch- tet euch für-|bass _ nicht meh- re,|
w: Gold in- mit- * * * ten,|im- mo- la- bant|haec _ sin- ce- re|fie- len nie- der|auf _ die Knie- en,|
w: Hie- rar- chi- * * * a,|na- tum pro- mat|vo- * ce pi- a|da die En- gel|sin- * gen al- le:|
w: Him- mel- rei- * * * che!|me- ri- to re-|so- * nat ve- re|Uns zum Trost ist|er _ ge- bo- ren,|
[Q:1/4=76]"^Breiter""^I." A2 A G2 c | c2 d e3 |!f!"^II." e-ee (gf)d | (cd)B!>(! c2!>)!"^I."!p! G | %16
w: na- tus est rex|glo- ri- ae,|euch ist ge- bo- ren ein|Kö- nig der Ehr', rex|
w: le- o- ni vic-|to- ri- ae,|op- * fer- ten, _ dem|Leu'n _ des Siegs, vic-|
w: laus, ho- nor et|glo- ri- a,|Lob _ und Ehr' _ sei|Gott _ dem Herrn, et|
w: dul- ci cum me-|lo- di- a,|sin- * get ihm _ ein|lieb- * lich Lied, me-|
 AdB c2"^II."!mf! G |[Q:1/4=72]"^ritard." A-AG !fermata!G3 |] %18
w: glo- * ri- ae, ein|Kö- nig der Ehr'.|
w: to- * ri- ae, dem|Leu'n _ des Siegs.|
w: glo- * ri- a, sei|Gott _ dem Herrn!|
w: lo- * di- a, ein|lieb- * lich Lied!|
V:2
 E2 E E2 E | E2 E E2 D | [DF]2 [DF] [DF]2 [DF] | [DF]2 [DF] [DF]2 [DF] | E2 E E2 E | E2 E E2 D | %6
 [DF]2 [DF] [DF]2 [DF] | [DF]2 [DF] [DF]2 [DF] | EA^G A2 E | E2 F E2 E | EA^G A2 E | E2 F E2 E | %12
 E2 F F2 E | E2 G G3 | G-GG A-AA | G-GF E2 G | FA G/F/ E2 G | F-FF E3 |] %18
V:3
 x6 | x6 | x3 G2 x | x3 G2 x | x6 | x6 | x3 G2 x | x3 G2 x | x6 | x6 | x6 | x6 | x6 | x6 | x6 | %15
 x6 | x6 | x6 |] %18
V:4
!mf! G,2 G, G,2 G, | G,2 G, G,2 G, | B,2 B, B,2 B, | B,2 B, B,2 B, | G,2 G, G,2 G, | %5
 G,2 G, G,2 G, | B,2 B, B,2 B, | B,2 B, B,2 B, | E2 E E2 D | CED C2 B, | E2 E E2 D | CED C2 B, | %12
 C2 C B,2 C | C2 B, C3 |!f! C-CC (CD)F | %15
"^(Dem Dirigenten sei anheimgegeben, die gleichen Melodiephrasen in verschiedener Weise zu schattieren)" (EF)D!>(! C2!>)!!p! C | %16
 CFD C2!mf! C | (C-C)B, C3 |] %18
V:5
 C,2 C, C,2 C, | C,2 E, G,2 G,, | G,2 G, G,2 G,, | G,2 G, G,2 G, | C,2 C, C,2 C, | C,2 E, G,2 G,, | %6
 G,2 G, G,2 G,, | G,2 G, G,2 G, | C2 B, E,A,^G, | A,2 D, E,2 E, | C2 B, E,A,^G, | A,2 D, E,2 E, | %12
 A,2 F, G,2 C, | A,2 G, C3 | C,-C,C, F,-F,F, | G,-G,G, A,2 E, | F,D,G, A,2 E, | %17
 F,D,G, !fermata!C,3 |] %18

